X:467
T:Nut Brown Maiden 
C:Joe Buchanan's Scottish Tome - Page 055.3
I:055 3
R:Polka
Z:Carl Allison
L:1/8
M:2/4
K:Gmaj
D|"G"G>F "C"ED|"G"G2 "G"DD |"G"F>A "A"cB|"A"A2 (Bc)|
"G"B<d Bd|"G"D2 "C"GA|"G"B>B "D"cA|"G"G2 (Bc) |
"G"B<d dB|"G"d2 Bc|"G"d<e "E"dB|"A"A2  "D"(Ac)|
"G"B<d Bd|"G"D2 "C"GA|"G"B>B "D"cA|"G"G4 |]

